templates/circle/32.svg

<?xml version="1.0" encoding="UTF-8" standalone="no"?>
<svg
   xmlns:dc="http://purl.org/dc/elements/1.1/"
   xmlns:cc="http://creativecommons.org/ns#"
   xmlns:rdf="http://www.w3.org/1999/02/22-rdf-syntax-ns#"
   xmlns:svg="http://www.w3.org/2000/svg"
   xmlns="http://www.w3.org/2000/svg"
   xmlns:sodipodi="http://sodipodi.sourceforge.net/DTD/sodipodi-0.dtd"
   xmlns:inkscape="http://www.inkscape.org/namespaces/inkscape"
   viewBox="0 0 32 32"
   id="svg2"
   version="1.1"
   inkscape:version="0.91 r13725"
   sodipodi:docname="32.svg"
   width="32"
   height="32">
  <metadata
     id="metadata59">
    <rdf:RDF>
      <cc:Work
         rdf:about="">
        <dc:format>image/svg+xml</dc:format>
        <dc:type
           rdf:resource="http://purl.org/dc/dcmitype/StillImage" />
        <dc:title />
      </cc:Work>
    </rdf:RDF>
  </metadata>
  <sodipodi:namedview
     pagecolor="#ffffff"
     bordercolor="#666666"
     borderopacity="1"
     objecttolerance="10"
     gridtolerance="10"
     guidetolerance="10"
     inkscape:pageopacity="0"
     inkscape:pageshadow="2"
     inkscape:window-width="1260"
     inkscape:window-height="962"
     id="namedview57"
     showgrid="true"
     inkscape:zoom="41.513784"
     inkscape:cx="7.1717447"
     inkscape:cy="4.9874528"
     inkscape:window-x="10"
     inkscape:window-y="52"
     inkscape:window-maximized="0"
     inkscape:current-layer="svg2">
    <inkscape:grid
       type="xygrid"
       id="grid3389" />
  </sodipodi:namedview>
  <defs
     id="defs4" />
  <g
     id="g21"
     transform="matrix(0.65957447,0,0,0.65957447,0.34042553,0.340426)">
    <path
       d="m 36.31,5 c 5.859,4.062 9.688,10.831 9.688,18.5 0,12.426 -10.07,22.5 -22.5,22.5 -7.669,0 -14.438,-3.828 -18.5,-9.688 1.037,1.822 2.306,3.499 3.781,4.969 4.085,3.712 9.514,5.969 15.469,5.969 12.703,0 23,-10.298 23,-23 0,-5.954 -2.256,-11.384 -5.969,-15.469 C 39.81,7.306 38.132,6.037 36.31,5 Z m 4.969,3.781 c 3.854,4.113 6.219,9.637 6.219,15.719 0,12.703 -10.297,23 -23,23 -6.081,0 -11.606,-2.364 -15.719,-6.219 4.16,4.144 9.883,6.719 16.219,6.719 12.703,0 23,-10.298 23,-23 0,-6.335 -2.575,-12.06 -6.719,-16.219 z"
       style="opacity:0.05"
       id="path23"
       inkscape:connector-curvature="0" />
    <path
       d="m 41.28,8.781 c 3.712,4.085 5.969,9.514 5.969,15.469 0,12.703 -10.297,23 -23,23 -5.954,0 -11.384,-2.256 -15.469,-5.969 4.113,3.854 9.637,6.219 15.719,6.219 12.703,0 23,-10.298 23,-23 0,-6.081 -2.364,-11.606 -6.219,-15.719 z"
       style="opacity:0.1"
       id="path25"
       inkscape:connector-curvature="0" />
    <path
       d="M 31.25,2.375 C 39.865,5.529 46,13.792 46,23.505 c 0,12.426 -10.07,22.5 -22.5,22.5 -9.708,0 -17.971,-6.135 -21.12,-14.75 a 23,23 0 0 0 44.875,-7 23,23 0 0 0 -16,-21.875 z"
       style="opacity:0.2"
       id="path27"
       inkscape:connector-curvature="0" />
  </g>
  <circle
     style="opacity:1;fill:#501616;fill-opacity:1;fill-rule:nonzero;stroke:none;stroke-width:1;stroke-linejoin:round;stroke-miterlimit:4;stroke-dasharray:none;stroke-opacity:1"
     id="path3449"
     cx="-16"
     cy="-16"
     r="15"
     transform="scale(-1,-1)" />
  <path
     inkscape:connector-curvature="0"
     style="opacity:0.1;fill:#000000;fill-opacity:1"
     d="M 16,31 C 24.284565,31 31,24.284565 31,16 31,11.60303 29.095948,7.661539 26.082031,4.917969 28.507768,7.582734 30,11.112405 30,15 30,23.284565 23.284565,30 15,30 11.112405,30 7.582734,28.507768 4.917969,26.082031 7.661539,29.095948 11.60303,31 16,31 Z M 26.082031,4.917969 C 25.750489,4.616165 25.406507,4.330055 25.048828,4.058594 c 0.35679,0.271478 0.70214,0.558008 1.033203,0.859375 z"
     id="path31"
     sodipodi:nodetypes="sscsscsccc" />
  <circle
     style="opacity:0.9;fill:#a02c2c;fill-opacity:1;fill-rule:nonzero;stroke:none;stroke-width:1;stroke-linejoin:round;stroke-miterlimit:4;stroke-dasharray:none;stroke-opacity:1"
     id="path3391"
     cx="16"
     cy="16"
     r="10" />
  <rect
     style="opacity:0.406;fill:#ff9c9c;fill-opacity:1;fill-rule:nonzero;stroke:none;stroke-width:1;stroke-linejoin:round;stroke-miterlimit:4;stroke-dasharray:none;stroke-opacity:1"
     id="rect3387"
     width="16"
     height="16"
     x="8"
     y="8" />
</svg>

<svg width="32" height="32" version="1.1" viewBox="0 0 32 32" xmlns="http://www.w3.org/2000/svg">
 <g transform="matrix(.65957 0 0 .65957 .34043 .34043)">
  <path d="m36.31 5c5.859 4.062 9.688 10.831 9.688 18.5 0 12.426-10.07 22.5-22.5 22.5-7.669 0-14.438-3.828-18.5-9.688 1.037 1.822 2.306 3.499 3.781 4.969 4.085 3.712 9.514 5.969 15.469 5.969 12.703 0 23-10.298 23-23 0-5.954-2.256-11.384-5.969-15.469-1.469-1.475-3.147-2.744-4.969-3.781zm4.969 3.781c3.854 4.113 6.219 9.637 6.219 15.719 0 12.703-10.297 23-23 23-6.081 0-11.606-2.364-15.719-6.219 4.16 4.144 9.883 6.719 16.219 6.719 12.703 0 23-10.298 23-23 0-6.335-2.575-12.06-6.719-16.219z" style="opacity:.05"/>
  <path d="m41.28 8.781c3.712 4.085 5.969 9.514 5.969 15.469 0 12.703-10.297 23-23 23-5.954 0-11.384-2.256-15.469-5.969 4.113 3.854 9.637 6.219 15.719 6.219 12.703 0 23-10.298 23-23 0-6.081-2.364-11.606-6.219-15.719z" style="opacity:.1"/>
  <path d="m31.25 2.375c8.615 3.154 14.75 11.417 14.75 21.13 0 12.426-10.07 22.5-22.5 22.5-9.708 0-17.971-6.135-21.12-14.75a23 23 0 0 0 44.875-7 23 23 0 0 0-16-21.875z" style="opacity:.2"/>
 </g>
 <circle transform="scale(-1)" cx="-16" cy="-16" r="15" style="fill:#501616"/>
 <path d="m16 31c8.2846 0 15-6.7154 15-15 0-4.397-1.9041-8.3385-4.918-11.082 2.4257 2.6648 3.918 6.1944 3.918 10.082 0 8.2846-6.7154 15-15 15-3.8876 0-7.4173-1.4922-10.082-3.918 2.7436 3.0139 6.6851 4.918 11.082 4.918zm10.082-26.082c-0.33154-0.3018-0.67552-0.58791-1.0332-0.85938 0.35679 0.27148 0.70214 0.55801 1.0332 0.85938z" style="opacity:.1"/>
 <circle cx="16" cy="16" r="10" style="fill:#a02c2c;opacity:.9"/>
 <rect x="8" y="8" width="16" height="16" style="fill:#ff9c9c;opacity:.406"/>
</svg>
